X: 20806
T: Johnny Spillane's Favourite
R: polka
M: 2/4
K: Dmajor
|:Ad f/e/d/c/|dF A>d|cE G/B/G/B/|AD DF|
Ad f/e/d/c/|dF A>d|cA GE|ED D2:|
|:ad d/e/d/B/|cb b>c'|bc c/B/c/B/|Aa a/b/a/f/|
ad d/e/d/B/|cb b>c'|bc cB/c/|1 ed e/f/g/:|2 ed d>B||

